Numix/scalable/places/old/user-trash-symbolic.svg

<?xml version="1.0" encoding="UTF-8" standalone="no"?>
<svg
   xmlns:dc="http://purl.org/dc/elements/1.1/"
   xmlns:cc="http://creativecommons.org/ns#"
   xmlns:rdf="http://www.w3.org/1999/02/22-rdf-syntax-ns#"
   xmlns:svg="http://www.w3.org/2000/svg"
   xmlns="http://www.w3.org/2000/svg"
   xmlns:sodipodi="http://sodipodi.sourceforge.net/DTD/sodipodi-0.dtd"
   xmlns:inkscape="http://www.inkscape.org/namespaces/inkscape"
   width="16"
   height="16"
   viewBox="0 0 16 16"
   id="svg152"
   version="1.1"
   inkscape:version="0.91 r"
   sodipodi:docname="user-trash-symbolic.svg">
  <metadata
     id="metadata170">
    <rdf:RDF>
      <cc:Work
         rdf:about="">
        <dc:format>image/svg+xml</dc:format>
        <dc:type
           rdf:resource="http://purl.org/dc/dcmitype/StillImage" />
      </cc:Work>
    </rdf:RDF>
  </metadata>
  <defs
     id="defs168" />
  <sodipodi:namedview
     pagecolor="#ffffff"
     bordercolor="#666666"
     borderopacity="1"
     objecttolerance="10"
     gridtolerance="10"
     guidetolerance="10"
     inkscape:pageopacity="0"
     inkscape:pageshadow="2"
     inkscape:window-width="640"
     inkscape:window-height="480"
     id="namedview166" />
  <path
     style="fill:#888"
     d="M 6.96875 14.140625 L 6.964844 10.316406 C 6.089844 10.316406 5.21875 10.316406 4.34375 10.316406 L 1.214844 9.75 L 3.277344 13.449219 C 3.378906 13.628906 3.984375 14.140625 5.007812 14.140625 Z "
     id="path154" />
  <path
     style="fill:#bebebe"
     d="M 4.34375 10.316406 L 5.015625 9.109375 L 5.875 9.621094 L 5.265625 7.859375 L 4.65625 6.101562 L 2.875 6.433594 L 1.097656 6.765625 L 1.816406 7.195312 L 1.230469 8.242188 C 0.953125 8.742188 0.902344 9.191406 1.214844 9.75 L 3.277344 13.449219 C 3.328125 13.539062 3.507812 13.710938 3.800781 13.863281 C 2.800781 13.140625 3.378906 12.015625 4.34375 10.316406 Z "
     id="path156" />
  <path
     style="fill:#888"
     d="M 3.214844 4.625 L 6.417969 6.539062 C 6.855469 5.753906 7.292969 4.96875 7.726562 4.183594 L 9.769531 1.667969 L 5.640625 1.667969 C 5.4375 1.667969 4.707031 1.953125 4.195312 2.867188 Z "
     id="path158" />
  <path
     style="fill:#bebebe"
     d="M 7.726562 4.1875 L 8.402344 5.394531 L 7.542969 5.910156 L 9.324219 6.242188 L 11.101562 6.574219 L 11.714844 4.816406 L 12.324219 3.054688 L 11.605469 3.484375 L 11.019531 2.433594 C 10.742188 1.933594 10.390625 1.667969 9.769531 1.667969 L 5.640625 1.667969 C 5.539062 1.667969 5.304688 1.738281 5.03125 1.925781 C 6.132812 1.394531 6.789062 2.472656 7.726562 4.1875 Z "
     id="path160" />
  <path
     style="fill:#888"
     d="M 13.859375 6.078125 L 10.542969 7.992188 C 10.980469 8.75 11.417969 9.507812 11.859375 10.261719 L 12.929688 13.253906 L 15.101562 9.617188 C 15.207031 9.441406 15.347656 8.660156 14.839844 7.773438 Z "
     id="path162" />
  <path
     style="fill:#bebebe"
     d="M 11.859375 10.261719 L 10.472656 10.28125 L 10.488281 9.28125 L 8.050781 12.101562 L 9.226562 13.472656 L 10.40625 14.847656 L 10.417969 14.011719 L 11.621094 13.992188 C 12.191406 13.984375 12.601562 13.804688 12.929688 13.253906 L 15.101562 9.617188 C 15.15625 9.527344 15.21875 9.289062 15.199219 8.957031 C 15.074219 10.183594 13.8125 10.246094 11.859375 10.261719 Z "
     id="path164" />
</svg>

<svg xmlns="http://www.w3.org/2000/svg" viewBox="0 0 16 16">
 <path d="m 6.969 14.14 l -0.004 -3.824 c -0.875 0 -1.746 0 -2.621 0 l -3.129 -0.566 l 2.063 3.699 c 0.102 0.18 0.707 0.691 1.73 0.691 Z" style="fill:#888"/>
 <path d="m 4.344 10.316 l 0.672 -1.207 l 0.859 0.512 l -0.609 -1.762 l -0.609 -1.758 l -1.781 0.332 l -1.777 0.332 l 0.719 0.43 l -0.586 1.047 c -0.277 0.5 -0.328 0.949 -0.016 1.508 l 2.063 3.699 c 0.051 0.09 0.23 0.262 0.523 0.414 c -1 -0.723 -0.422 -1.848 0.543 -3.547 Z" style="fill:#bebebe"/>
 <path d="m 3.215 4.625 l 3.203 1.914 c 0.438 -0.785 0.875 -1.57 1.309 -2.355 l 2.043 -2.516 l -4.129 0 c -0.203 0 -0.934 0.285 -1.445 1.199 Z" style="fill:#888"/>
 <path d="m 7.727 4.188 l 0.676 1.207 l -0.859 0.516 l 1.781 0.332 l 1.777 0.332 l 0.613 -1.758 l 0.609 -1.762 l -0.719 0.43 l -0.586 -1.051 c -0.277 -0.5 -0.629 -0.766 -1.25 -0.766 l -4.129 0 c -0.102 0 -0.336 0.07 -0.609 0.258 c 1.102 -0.531 1.758 0.547 2.695 2.262 Z" style="fill:#bebebe"/>
 <path d="m 13.859 6.078 l -3.316 1.914 c 0.438 0.758 0.875 1.516 1.316 2.27 l 1.07 2.992 l 2.172 -3.637 c 0.105 -0.176 0.246 -0.957 -0.262 -1.844 Z" style="fill:#888"/>
 <path d="m 11.859 10.262 l -1.387 0.02 l 0.016 -1 l -2.438 2.82 l 1.176 1.371 l 1.18 1.375 l 0.012 -0.836 l 1.203 -0.02 c 0.57 -0.008 0.98 -0.188 1.309 -0.738 l 2.172 -3.637 c 0.055 -0.09 0.117 -0.328 0.098 -0.66 c -0.125 1.227 -1.387 1.289 -3.34 1.305 Z" style="fill:#bebebe"/>
</svg>
